X: 25268
T: Man In The Moon, The
R: reel
M: 4/4
K: Amixolydian
|:e|A<AcA A<e a2|eAcA BAGB|A<AcA A<e a2|ecBc AAA:|
|:e|agfe fg a2|agfe aece|1 agfe fg a2|ecBc AAA:|2 fgaf ecaf|ecBc AAA||

